; generated by Slic3r 1.2.9 on 2017-06-21 at 14:03:11

; external perimeters extrusion width = 0.50mm
; perimeters extrusion width = 0.85mm
; infill extrusion width = 1.02mm
; solid infill extrusion width = 0.85mm
; top infill extrusion width = 0.85mm

M107
M190 S75 ; set bed temperature
M104 S200 ; set temperature
G28 ; home all axes
G1 Z5 F5000 ; lift nozzle

M109 S200 ; wait for temperature to be reached
G21 ; set units to millimeters
G90 ; use absolute coordinates
M82 ; use absolute distances for extrusion
G92 E0
G1 E-2.00000 F2400.00000
G92 E0
G1 Z0.350 F7800.000
G1 X61.355 Y77.030 F7800.000
G1 E2.00000 F2400.00000
G1 X67.855 Y73.030 E2.69399 F600.000
G1 X69.987 Y72.184 E2.90253
G1 X71.279 Y72.047 E3.02071
G1 X98.606 Y71.850 E5.50558
G1 X110.727 Y71.850 E6.60772
G1 X140.106 Y72.173 E9.27929 F600.000
G1 X142.360 Y72.595 E9.48783
G1 X143.505 Y73.156 E9.60375
G1 X150.005 Y77.156 E10.29774
G1 X151.721 Y78.678 E10.50628
G1 X152.815 Y80.693 E10.71482
G1 X153.158 Y82.798 E10.90871
G1 X153.158 Y92.849 E11.82263
G1 X152.893 Y127.200 E14.94628
G1 X152.479 Y129.456 E15.15482
G1 X151.320 Y131.435 E15.36336
G1 X149.741 Y132.791 E15.55267
G1 X143.241 Y136.791 E16.24666
G1 X141.109 Y137.637 E16.45521
G1 X139.857 Y137.773 E16.56974
G1 X111.460 Y138.150 E19.15210
G1 X99.381 Y138.150 E20.25038
G1 X69.889 Y137.801 E22.93231
G1 X67.635 Y137.378 E23.14085
G1 X66.495 Y136.819 E23.25627
G1 X59.995 Y132.819 E23.95026
G1 X58.279 Y131.297 E24.15880
G1 X57.185 Y129.281 E24.36735
G1 X56.842 Y127.177 E24.56123
G1 X56.847 Y116.916 E25.49425
G1 X58.207 Y82.411 E28.63420
G1 X58.693 Y80.170 E28.84275
G1 X59.914 Y78.228 E29.05129
G1 X61.297 Y77.078 E29.21490
G1 F6240
G1 X65.722 Y74.346 E27.31490
G1 E27.21490 F2400.00000
G92 E0
G1 X69.061 Y110.990 F7800.000
G1 E2.00000 F2400.00000
G1 X73.873 Y110.990 E2.43754 F600.000
G1 X75.154 Y112.271 E2.60229
G1 X75.154 Y132.083 E4.40378 F600.000
G1 X73.873 Y133.364 E4.56853
G1 X69.061 Y133.364 E5.00607
G1 X67.780 Y132.083 E5.17082
G1 X67.780 Y129.730 E5.38476
G1 X67.414 Y129.364 E5.43183
G1 X62.561 Y129.364 E5.87309
G1 X61.280 Y128.083 E6.03784
G1 X61.280 Y116.271 E7.11189
G1 X62.561 Y114.990 E7.27664
G1 X67.414 Y114.990 E7.71790
G1 X67.780 Y114.624 E7.76497
G1 X67.780 Y112.271 E7.97891
G1 X69.008 Y111.043 E8.13684
G1 X69.320 Y111.615 F7800.000
G1 X73.614 Y111.615 E8.52731 F600.000
G1 X74.529 Y112.530 E8.64499 F600.000
G1 X74.529 Y131.824 E10.39940
G1 X73.614 Y132.739 E10.51708
G1 X69.320 Y132.739 E10.90755
G1 X68.405 Y131.824 E11.02523
G1 X68.405 Y129.105 E11.27245
G1 X68.039 Y128.739 E11.31952
G1 X62.820 Y128.739 E11.79407
G1 X61.905 Y127.824 E11.91175
G1 X61.905 Y116.530 E12.93872
G1 X62.820 Y115.615 E13.05640
G1 X68.039 Y115.615 E13.53095
G1 X68.405 Y115.249 E13.57802
G1 X68.405 Y112.530 E13.82524
G1 X69.267 Y111.668 E13.93610
G1 X69.579 Y112.239 F7800.000
G1 X73.355 Y112.239 E14.27950 F600.000
G1 X73.905 Y112.789 E14.35011
G1 X73.905 Y131.565 E16.05745 F600.000
G1 X73.355 Y132.114 E16.12806
G1 X69.579 Y132.114 E16.47145
G1 X69.030 Y131.565 E16.54206
G1 X69.030 Y128.480 E16.82257
G1 X68.664 Y128.114 E16.86964
G1 X63.079 Y128.114 E17.37747
G1 X62.530 Y127.565 E17.44808
G1 X62.530 Y116.789 E18.42798
G1 X63.079 Y116.239 E18.49859
G1 X68.664 Y116.239 E19.00642
G1 X69.030 Y115.873 E19.05349
G1 X69.030 Y112.789 E19.33400
G1 X69.526 Y112.293 E19.39778
G1 X69.655 Y113.047 F7800.000
G1 X69.838 Y112.864 E19.42132 F600.000
G1 X73.097 Y112.864 E19.71764
G1 X73.280 Y113.047 E19.74118
G1 X73.280 Y131.306 E21.40145
G1 X73.097 Y131.489 E21.42499
G1 X69.838 Y131.489 E21.72131
G1 X69.655 Y131.306 E21.74485
G1 X69.655 Y127.855 E22.05864
G1 X69.289 Y127.489 E22.10571
G1 X63.338 Y127.489 E22.64682
G1 X63.155 Y127.306 E22.67036
G1 X63.155 Y117.047 E23.60319
G1 X63.338 Y116.864 E23.62673
G1 X69.289 Y116.864 E24.16784
G1 X69.655 Y116.498 E24.21491
G1 X69.655 Y113.122 E24.52189
G1 F6240
G1 X69.838 Y112.864 E24.40630
G1 F6240
G1 X73.097 Y112.864 E23.21557
G1 F6240
G1 X73.280 Y113.047 E23.12099
G1 F6240
G1 X73.280 Y114.413 E22.62189
G1 E22.52189 F2400.00000
G92 E0
G1 X134.582 Y113.047 F7800.000
G1 E2.00000 F2400.00000
G1 X134.582 Y112.243 E2.07313 F600.000
G1 X135.863 Y110.962 E2.23789
G1 X140.675 Y110.962 E2.67543
G1 X141.956 Y112.243 E2.84018
G1 X141.956 Y114.596 E3.05412 F600.000
G1 X142.322 Y114.962 E3.10119
G1 X147.175 Y114.962 E3.54245
G1 X148.456 Y116.243 E3.70720
G1 X148.456 Y128.055 E4.78125
G1 X147.175 Y129.336 E4.94600
G1 X142.322 Y129.336 E5.38726
G1 X141.956 Y129.702 E5.43433
G1 X141.956 Y132.055 E5.64827
G1 X140.675 Y133.336 E5.81302
G1 X135.863 Y133.336 E6.25056
G1 X134.582 Y132.055 E6.41531
G1 X134.582 Y113.122 E8.13684
G1 X135.206 Y113.047 F7800.000
G1 X135.206 Y112.502 E8.18644 F600.000
G1 X136.122 Y111.587 E8.30412
G1 X140.416 Y111.587 E8.69459
G1 X141.331 Y112.502 E8.81227 F600.000
G1 X141.331 Y115.221 E9.05949
G1 X141.697 Y115.587 E9.10656
G1 X146.916 Y115.587 E9.58111
G1 X147.831 Y116.502 E9.69879
G1 X147.831 Y127.796 E10.72576
G1 X146.916 Y128.711 E10.84344
G1 X141.697 Y128.711 E11.31799
G1 X141.331 Y129.077 E11.36506
G1 X141.331 Y131.796 E11.61228
G1 X140.416 Y132.711 E11.72996
G1 X136.122 Y132.711 E12.12043
G1 X135.206 Y131.796 E12.23811
G1 X135.206 Y113.122 E13.93610
G1 X135.831 Y113.047 F7800.000
G1 X135.831 Y112.761 E13.96217 F600.000
G1 X136.380 Y112.212 E14.03277
G1 X140.157 Y112.212 E14.37617
G1 X140.706 Y112.761 E14.44678
G1 X140.706 Y115.846 E14.72728 F600.000
G1 X141.072 Y116.212 E14.77436
G1 X146.657 Y116.212 E15.28219
G1 X147.206 Y116.761 E15.35279
G1 X147.206 Y127.537 E16.33270
G1 X146.657 Y128.086 E16.40331
G1 X141.072 Y128.086 E16.91114
G1 X140.706 Y128.452 E16.95821
G1 X140.706 Y131.537 E17.23871
G1 X140.157 Y132.086 E17.30932
G1 X136.380 Y132.086 E17.65272
G1 X135.831 Y131.537 E17.72333
G1 X135.831 Y113.122 E19.39778
G1 X136.456 Y113.020 F7800.000
G1 X136.639 Y112.837 E19.42132 F600.000
G1 X139.898 Y112.837 E19.71765
G1 X140.081 Y113.020 E19.74118
G1 X140.081 Y116.471 E20.05497
G1 X140.447 Y116.837 E20.10204
G1 X146.398 Y116.837 E20.64316
G1 X146.581 Y117.020 E20.66669
G1 X146.581 Y127.278 E21.59953
G1 X146.398 Y127.461 E21.62306
G1 X140.447 Y127.461 E22.16418
G1 X140.081 Y127.828 E22.21125
G1 X140.081 Y131.278 E22.52504
G1 X139.898 Y131.461 E22.54858
G1 X136.639 Y131.461 E22.84490
G1 X136.456 Y131.278 E22.86844
G1 X136.456 Y113.095 E24.52189
G1 F6240
G1 X136.639 Y112.837 E24.40630
G1 F6240
G1 X139.898 Y112.837 E23.21557
G1 F6240
G1 X140.081 Y113.020 E23.12099
G1 F6240
G1 X140.081 Y114.386 E22.62189
G1 E22.52189 F2400.00000
G92 E0
G1 X136.456 Y98.985 F7800.000
G1 E2.00000 F2400.00000
G1 X136.127 Y98.985 E2.02995 F600.000
G1 X134.846 Y97.704 E2.19470
G1 X134.846 Y77.892 E3.99619
G1 X136.127 Y76.611 E4.16094
G1 X140.939 Y76.611 E4.59848
G1 X142.220 Y77.892 E4.76323
G1 X142.220 Y80.245 E4.97717 F600.000
G1 X142.586 Y80.611 E5.02424
G1 X147.439 Y80.611 E5.46550
G1 X148.720 Y81.892 E5.63025
G1 X148.720 Y93.704 E6.70430
G1 X147.439 Y94.985 E6.86905
G1 X142.586 Y94.985 E7.31031
G1 X142.220 Y95.351 E7.35738
G1 X142.220 Y97.704 E7.57132
G1 X140.939 Y98.985 E7.73607
G1 X136.531 Y98.985 E8.13684
G1 X136.456 Y98.360 F7800.000
G1 X136.386 Y98.360 E8.14325 F600.000
G1 X135.471 Y97.445 E8.26093
G1 X135.471 Y78.151 E10.01535
G1 X136.386 Y77.235 E10.13303
G1 X140.680 Y77.235 E10.52350
G1 X141.595 Y78.151 E10.64118 F600.000
G1 X141.595 Y80.869 E10.88840
G1 X141.961 Y81.235 E10.93547
G1 X147.180 Y81.235 E11.41001
G1 X148.095 Y82.151 E11.52769
G1 X148.095 Y93.445 E12.55467
G1 X147.180 Y94.360 E12.67235
G1 X141.961 Y94.360 E13.14689
G1 X141.595 Y94.726 E13.19397
G1 X141.595 Y97.445 E13.44119
G1 X140.680 Y98.360 E13.55887
G1 X136.531 Y98.360 E13.93610
G1 X136.645 Y97.735 F7800.000
G1 X136.095 Y97.186 E14.00671 F600.000
G1 X136.095 Y78.409 E15.71405
G1 X136.645 Y77.860 E15.78466
G1 X140.421 Y77.860 E16.12806
G1 X140.970 Y78.409 E16.19866
G1 X140.970 Y81.494 E16.47917 F600.000
G1 X141.336 Y81.860 E16.52624
G1 X146.921 Y81.860 E17.03407
G1 X147.470 Y82.409 E17.10468
G1 X147.470 Y93.186 E18.08458
G1 X146.921 Y93.735 E18.15519
G1 X141.336 Y93.735 E18.66302
G1 X140.970 Y94.101 E18.71009
G1 X140.970 Y97.186 E18.99060
G1 X140.421 Y97.735 E19.06121
G1 X136.720 Y97.735 E19.39778
G1 X136.903 Y97.110 F7800.000
G1 X136.720 Y96.927 E19.42132 F600.000
G1 X136.720 Y78.668 E21.08159
G1 X136.903 Y78.485 E21.10512
G1 X140.162 Y78.485 E21.40145
G1 X140.345 Y78.668 E21.42499
G1 X140.345 Y82.119 E21.73878
G1 X140.711 Y82.485 E21.78585
G1 X146.662 Y82.485 E22.32696
G1 X146.845 Y82.668 E22.35050
G1 X146.845 Y92.927 E23.28333
G1 X146.662 Y93.110 E23.30687
G1 X140.711 Y93.110 E23.84798
G1 X140.345 Y93.476 E23.89505
G1 X140.345 Y96.927 E24.20884
G1 X140.162 Y97.110 E24.23238
G1 X136.978 Y97.110 E24.52189
G1 F6240
G1 X136.720 Y96.927 E24.40630
G1 F6240
G1 X136.720 Y92.043 E22.62189
G1 E22.52189 F2400.00000
G92 E0
G1 X105.467 Y97.905 F7800.000
G1 E2.00000 F2400.00000
G1 X105.467 Y77.569 E3.84922 F600.000
G1 X106.748 Y76.287 E4.01397
G1 X111.560 Y76.287 E4.45151
G1 X112.841 Y77.569 E4.61627
G1 X112.841 Y79.921 E4.83020
G1 X113.207 Y80.287 E4.87727
G1 X118.060 Y80.287 E5.31853
G1 X119.246 Y81.474 E5.47109
G1 X119.764 Y81.474 E5.51816
G1 X120.627 Y80.611 E5.62915
G1 X125.480 Y80.611 E6.07041
G1 X125.846 Y80.245 E6.11748
G1 X125.846 Y77.892 E6.33141
G1 X127.127 Y76.611 E6.49617
G1 X131.939 Y76.611 E6.93371
G1 X133.220 Y77.892 E7.09846
G1 X133.220 Y97.704 E8.89994
G1 X133.207 Y97.717 E8.90163
G1 X133.207 Y98.234 E8.94870
G1 X134.066 Y99.093 E9.05917
G1 X134.066 Y110.905 E10.13322
G1 X133.051 Y111.920 E10.26372
G1 X132.956 Y112.150 E10.28633
G1 X132.956 Y132.055 E12.09629
G1 X131.675 Y133.336 E12.26104
G1 X126.863 Y133.336 E12.69858
G1 X125.582 Y132.055 E12.86333
G1 X125.582 Y129.702 E13.07727
G1 X125.216 Y129.336 E13.12434
G1 X120.363 Y129.336 E13.56560
G1 X120.061 Y129.035 E13.60437
G1 X119.544 Y129.035 E13.65144
G1 X118.866 Y129.713 E13.73862
G1 X114.013 Y129.713 E14.17988
G1 X113.647 Y130.079 E14.22695
G1 X113.647 Y132.431 E14.44088
G1 X112.366 Y133.713 E14.60564
G1 X107.554 Y133.713 E15.04318
G1 X106.273 Y132.431 E15.20793
G1 X106.273 Y112.621 E17.00929
G1 X106.177 Y112.391 E17.03189
G1 X105.418 Y111.632 E17.12951
G1 X104.647 Y111.952 E17.20545
G1 X104.647 Y132.431 E19.06766
G1 X103.366 Y133.713 E19.23241
G1 X98.554 Y133.713 E19.66995
G1 X97.273 Y132.431 E19.83471
G1 X97.273 Y130.079 E20.04864
G1 X96.907 Y129.713 E20.09571
G1 X92.054 Y129.713 E20.53697
G1 X90.798 Y128.457 E20.69847
G1 X90.280 Y128.457 E20.74554
G1 X89.373 Y129.364 E20.86220
G1 X84.520 Y129.364 E21.30346
G1 X84.154 Y129.730 E21.35053
G1 X84.154 Y132.083 E21.56447
G1 X82.873 Y133.364 E21.72922
G1 X78.061 Y133.364 E22.16676
G1 X76.780 Y132.083 E22.33151
G1 X76.780 Y112.271 E24.13299
G1 X76.909 Y112.142 E24.14954
G1 X76.909 Y111.625 E24.19661
G1 X76.301 Y111.016 E24.27482
G1 X76.301 Y98.883 E25.37814
G1 X75.529 Y98.563 E25.45407
G1 X75.233 Y98.859 E25.49213
G1 X70.421 Y98.859 E25.92967
G1 X69.140 Y97.578 E26.09442
G1 X69.140 Y95.225 E26.30836
G1 X68.774 Y94.859 E26.35543
G1 X63.921 Y94.859 E26.79669
G1 X62.640 Y93.578 E26.96144
G1 X62.640 Y81.766 E28.03549
G1 X63.921 Y80.485 E28.20024
G1 X68.774 Y80.485 E28.64150
G1 X69.140 Y80.119 E28.68858
G1 X69.140 Y77.766 E28.90251
G1 X70.421 Y76.485 E29.06726
G1 X75.233 Y76.485 E29.50481
G1 X76.514 Y77.766 E29.66956
G1 X76.514 Y97.900 E31.50031
G1 X77.286 Y98.219 E31.57624
G1 X77.582 Y97.923 E31.61431
G1 X77.774 Y97.923 E31.63179
G1 X78.140 Y97.557 E31.67886
G1 X78.140 Y77.766 E33.47847
G1 X79.421 Y76.485 E33.64322
G1 X84.233 Y76.485 E34.08076
G1 X85.514 Y77.766 E34.24552
G1 X85.514 Y80.119 E34.45945
G1 X85.880 Y80.485 E34.50652
G1 X90.916 Y80.485 E34.96442
G1 X91.146 Y80.390 E34.98703
G1 X91.248 Y80.287 E35.00018
G1 X96.101 Y80.287 E35.44144
G1 X96.467 Y79.921 E35.48851
G1 X96.467 Y77.569 E35.70244
G1 X97.748 Y76.287 E35.86720
G1 X102.560 Y76.287 E36.30474
G1 X103.841 Y77.569 E36.46949
G1 X103.841 Y97.557 E38.28705
G1 X104.207 Y97.923 E38.33412
G1 X104.394 Y97.923 E38.35109
G1 X104.695 Y98.225 E38.38988
G1 X105.397 Y97.934 E38.45899
G1 F6240
G1 X105.415 Y92.734 E36.55899
G1 E36.45899 F2400.00000
G92 E0
G1 X118.356 Y94.366 F7800.000
G1 E2.00000 F2400.00000
G1 X118.923 Y93.799 E2.07294 F600.000
G1 X119.441 Y93.799 E2.12001
G1 X120.205 Y94.563 E2.21827
G1 X120.205 Y95.080 E2.26534
G1 X120.192 Y95.093 E2.26703
G1 X120.192 Y114.999 E4.07699
G1 X120.096 Y115.228 E4.09960
G1 X119.685 Y115.640 E4.15253
G1 X119.167 Y115.640 E4.19960
G1 X118.661 Y115.134 E4.26470
G1 X118.566 Y114.904 E4.28730
G1 X118.566 Y95.093 E6.08866
G1 X118.356 Y94.883 E6.11568
G1 X118.356 Y94.441 E6.15593
G1 F6240
G1 X118.923 Y93.799 E5.84287
G1 F6240
G1 X119.441 Y93.799 E5.65372
G1 F6240
G1 X120.205 Y94.563 E5.25886
G1 F6240
G1 X120.205 Y95.080 E5.06971
G1 F6240
G1 X120.192 Y95.093 E5.06292
G1 F6240
G1 X120.192 Y97.302 E4.25593
G1 E4.15593 F2400.00000
G92 E0
G1 X75.889 Y94.366 F7800.000
G1 E2.00000 F2400.00000
G1 X75.889 Y97.319 E2.26854 F600.000
G1 X74.974 Y98.234 E2.38622
G1 X70.680 Y98.234 E2.77669
G1 X69.765 Y97.319 E2.89437
G1 X69.765 Y94.600 E3.14159
G1 X69.399 Y94.234 E3.18866
G1 X64.180 Y94.234 E3.66321
G1 X63.265 Y93.319 E3.78089
G1 X63.265 Y82.025 E4.80786
G1 X64.180 Y81.110 E4.92554
G1 X69.399 Y81.110 E5.40009
G1 X69.765 Y80.744 E5.44716
G1 X69.765 Y78.025 E5.69438
G1 X70.680 Y77.110 E5.81206
G1 X74.974 Y77.110 E6.20253
G1 X75.889 Y78.025 E6.32021 F600.000
G1 X75.889 Y94.291 E7.79926
G1 X75.264 Y94.366 F7800.000
G1 X75.264 Y97.060 E8.04427 F600.000
G1 X74.715 Y97.609 E8.11487
G1 X70.939 Y97.609 E8.45827
G1 X70.390 Y97.060 E8.52888
G1 X70.390 Y93.975 E8.80938
G1 X70.024 Y93.609 E8.85646
G1 X64.439 Y93.609 E9.36429
G1 X63.890 Y93.060 E9.43489
G1 X63.890 Y82.284 E10.41480
G1 X64.439 Y81.735 E10.48541
G1 X70.024 Y81.735 E10.99324
G1 X70.390 Y81.369 E11.04031
G1 X70.390 Y78.284 E11.32081
G1 X70.939 Y77.735 E11.39142
G1 X74.715 Y77.735 E11.73482
G1 X75.264 Y78.284 E11.80543
G1 X75.264 Y94.291 E13.26094 F600.000
G1 F6240
G1 X75.264 Y97.060 E12.24903
G1 F6240
G1 X74.715 Y97.609 E11.96531
G1 F6240
G1 X73.061 Y97.609 E11.36094
G1 E11.26094 F2400.00000
G92 E0
G1 X74.640 Y96.801 F7800.000
G1 E2.00000 F2400.00000
G1 X74.457 Y96.984 E2.02354 F600.000
G1 X71.198 Y96.984 E2.31986
G1 X71.015 Y96.801 E2.34340
G1 X71.015 Y93.350 E2.65719
G1 X70.649 Y92.984 E2.70426
G1 X64.698 Y92.984 E3.24537
G1 X64.515 Y92.801 E3.26891
G1 X64.515 Y82.542 E4.20174
G1 X64.698 Y82.359 E4.22528
G1 X70.649 Y82.359 E4.76639
G1 X71.015 Y81.993 E4.81347
G1 X71.015 Y78.542 E5.12726
G1 X71.198 Y78.359 E5.15079
G1 X74.457 Y78.359 E5.44712
G1 X74.640 Y78.542 E5.47065
G1 X74.640 Y96.726 E7.12410
G1 F6240
G1 X74.457 Y96.984 E7.00851
G1 F6240
G1 X71.198 Y96.984 E5.81778
G1 F6240
G1 X71.015 Y96.801 E5.72321
G1 F6240
G1 X71.015 Y95.435 E5.22410
G1 E5.12410 F2400.00000
G92 E0
G1 X91.029 Y94.563 F7800.000
G1 E2.00000 F2400.00000
G1 X91.801 Y94.883 E2.07593 F600.000
G1 X91.801 Y115.016 E3.90669
G1 X91.829 Y115.045 E3.91039
G1 X91.829 Y115.563 E3.95746
G1 X91.147 Y116.246 E4.04526
G1 X90.629 Y116.246 E4.09233
G1 X90.046 Y115.663 E4.16728
G1 X90.046 Y115.145 E4.21435
G1 X90.175 Y115.016 E4.23090
G1 X90.175 Y95.225 E6.03051
G1 X90.541 Y94.859 E6.07758
G1 X90.733 Y94.859 E6.09506
G1 X90.976 Y94.616 E6.12631
G1 X92.761 Y94.037 F7800.000
G1 X91.507 Y94.037 E6.24035 F600.000
G1 X91.348 Y93.878 E6.26076
G1 X90.830 Y93.878 E6.30783
G1 X90.474 Y94.234 E6.35363
G1 X89.412 Y94.234 E6.45024
G1 X89.092 Y95.006 E6.52618
G1 X89.550 Y95.463 E6.58503
G1 X89.550 Y114.758 E8.33945
G1 X89.162 Y115.145 E8.38928
G1 X89.162 Y115.663 E8.43635
G1 X90.029 Y116.530 E8.54784
G1 X90.029 Y127.824 E9.57482
G1 X89.114 Y128.739 E9.69250
G1 X83.895 Y128.739 E10.16704
G1 X83.529 Y129.105 E10.21411
G1 X83.529 Y131.824 E10.46134
G1 X82.614 Y132.739 E10.57902
G1 X78.320 Y132.739 E10.96948
G1 X77.405 Y131.824 E11.08716
G1 X77.405 Y112.530 E12.84158
G1 X77.792 Y112.142 E12.89141
G1 X77.792 Y111.625 E12.93848
G1 X76.925 Y110.758 E13.04997
G1 X76.925 Y99.463 E14.07695
G1 X77.841 Y98.548 E14.19463
G1 X78.903 Y98.548 E14.29124
G1 X79.223 Y97.777 E14.36717
G1 X78.765 Y97.319 E14.42603
G1 X78.765 Y78.025 E16.18044
