; generated by Slic3r 1.2.9 on 2017-07-17 at 21:53:52

; external perimeters extrusion width = 0.50mm
; perimeters extrusion width = 0.85mm
; infill extrusion width = 1.02mm
; solid infill extrusion width = 0.85mm
; top infill extrusion width = 0.85mm

M107
M190 S75 ; set bed temperature
M104 S200 ; set temperature
G28 ; home all axes
G1 Z5 F5000 ; lift nozzle

M109 S200 ; wait for temperature to be reached
G21 ; set units to millimeters
G90 ; use absolute coordinates
M82 ; use absolute distances for extrusion
G92 E0
G1 E-2.00000 F2400.00000
G92 E0
G1 Z0.350 F7800.000
G1 X106.438 Y99.353 F7800.000
G1 E2.00000 F2400.00000
G1 X107.353 Y98.438 E2.11768 F600.000
G1 X112.572 Y98.438 E2.59222
G1 X112.938 Y98.072 E2.63930
G1 X112.938 Y95.353 E2.88652
G1 X113.853 Y94.438 E3.00420
G1 X118.147 Y94.438 E3.39467
G1 X119.062 Y95.353 E3.51235
G1 X119.062 Y114.647 E5.26676 F600.000
G1 X118.147 Y115.562 E5.38444
G1 X113.853 Y115.562 E5.77491
G1 X112.938 Y114.647 E5.89259
G1 X112.938 Y111.928 E6.13981
G1 X112.572 Y111.562 E6.18688
G1 X107.353 Y111.562 E6.66143
G1 X106.438 Y110.647 E6.77911
G1 X106.438 Y99.428 E7.79926
G1 X107.063 Y99.612 F7800.000
G1 X107.612 Y99.063 E7.86987 F600.000
G1 X113.197 Y99.063 E8.37770
G1 X113.563 Y98.697 E8.42477
G1 X113.563 Y95.612 E8.70528
G1 X114.112 Y95.063 E8.77589
G1 X117.888 Y95.063 E9.11928
G1 X118.437 Y95.612 E9.18989 F600.000
G1 X118.437 Y114.388 E10.89723
G1 X117.888 Y114.937 E10.96784
G1 X114.112 Y114.937 E11.31123
G1 X113.563 Y114.388 E11.38184
G1 X113.563 Y111.303 E11.66235
G1 X113.197 Y110.937 E11.70942
G1 X107.612 Y110.937 E12.21725
G1 X107.063 Y110.388 E12.28786
G1 X107.063 Y99.687 E13.26094
G1 X107.688 Y99.871 F7800.000
G1 X107.871 Y99.688 E13.28448 F600.000
G1 X113.822 Y99.688 E13.82559
G1 X114.188 Y99.322 E13.87267
G1 X114.188 Y95.871 E14.18646
G1 X114.371 Y95.688 E14.20999
G1 X117.629 Y95.688 E14.50632
G1 X117.812 Y95.871 E14.52985
G1 X117.812 Y114.129 E16.19012
G1 X117.629 Y114.312 E16.21366
G1 X114.371 Y114.312 E16.50998
G1 X114.188 Y114.129 E16.53352
G1 X114.188 Y110.678 E16.84731
G1 X113.822 Y110.312 E16.89438
G1 X107.871 Y110.312 E17.43550
G1 X107.688 Y110.129 E17.45903
G1 X107.688 Y99.946 E18.38504
G1 F6240
G1 X107.871 Y99.688 E18.26946
G1 F6240
G1 X112.754 Y99.688 E16.48504
G1 E16.38504 F2400.00000
G92 E0
G1 X121.938 Y99.871 F7800.000
G1 E2.00000 F2400.00000
G1 X121.938 Y95.353 E2.41079 F600.000
G1 X122.853 Y94.438 E2.52847
G1 X127.147 Y94.438 E2.91894
G1 X128.062 Y95.353 E3.03662
G1 X128.062 Y98.072 E3.28384 F600.000
G1 X128.428 Y98.438 E3.33091
G1 X133.647 Y98.438 E3.80546
G1 X134.562 Y99.353 E3.92314
G1 X134.562 Y110.647 E4.95011
G1 X133.647 Y111.562 E5.06779
G1 X128.428 Y111.562 E5.54234
G1 X128.062 Y111.928 E5.58941
G1 X128.062 Y114.647 E5.83663
G1 X127.147 Y115.562 E5.95431
G1 X122.853 Y115.562 E6.34478
G1 X121.938 Y114.647 E6.46246
G1 X121.938 Y99.946 E7.79926
G1 X122.563 Y99.871 F7800.000
G1 X122.563 Y95.612 E8.18652 F600.000
G1 X123.112 Y95.063 E8.25712
G1 X126.888 Y95.063 E8.60052
G1 X127.437 Y95.612 E8.67113 F600.000
G1 X127.437 Y98.697 E8.95163
G1 X127.803 Y99.063 E8.99871
G1 X133.388 Y99.063 E9.50654
G1 X133.937 Y99.612 E9.57714
G1 X133.937 Y110.388 E10.55705
G1 X133.388 Y110.937 E10.62766
G1 X127.803 Y110.937 E11.13549
G1 X127.437 Y111.303 E11.18256
G1 X127.437 Y114.388 E11.46306
G1 X126.888 Y114.937 E11.53367
G1 X123.112 Y114.937 E11.87707
G1 X122.563 Y114.388 E11.94768
G1 X122.563 Y99.946 E13.26094
G1 F6240
G1 X122.563 Y95.612 E11.67743
G1 F6240
G1 X123.112 Y95.063 E11.39370
G1 F6240
G1 X123.201 Y95.063 E11.36094
G1 E11.26094 F2400.00000
G92 E0
G1 X123.188 Y95.871 F7800.000
G1 E2.00000 F2400.00000
G1 X123.371 Y95.688 E2.02354 F600.000
G1 X126.629 Y95.688 E2.31986
G1 X126.812 Y95.871 E2.34340
G1 X126.812 Y99.322 E2.65719
G1 X127.178 Y99.688 E2.70426
G1 X133.129 Y99.688 E3.24537
G1 X133.312 Y99.871 E3.26891
G1 X133.312 Y110.129 E4.20174
G1 X133.129 Y110.312 E4.22528
G1 X127.178 Y110.312 E4.76639
G1 X126.812 Y110.678 E4.81347
G1 X126.812 Y114.129 E5.12726
G1 X126.629 Y114.312 E5.15079
G1 X123.371 Y114.312 E5.44712
G1 X123.188 Y114.129 E5.47065
G1 X123.188 Y95.946 E7.12410
G1 F6240
G1 X123.371 Y95.688 E7.00851
G1 F6240
G1 X126.629 Y95.688 E5.81778
G1 F6240
G1 X126.812 Y95.871 E5.72321
G1 F6240
G1 X126.812 Y97.237 E5.22410
G1 E5.12410 F2400.00000
G92 E0
G1 X152.938 Y90.647 F7800.000
G1 E2.00000 F2400.00000
G1 X152.938 Y71.353 E3.75441 F600.000
G1 X153.853 Y70.438 E3.87209
G1 X158.147 Y70.438 E4.26256
G1 X159.062 Y71.353 E4.38024
G1 X159.062 Y74.072 E4.62746 F600.000
G1 X159.428 Y74.438 E4.67453
G1 X164.647 Y74.438 E5.14908
G1 X165.562 Y75.353 E5.26676
G1 X165.562 Y86.647 E6.29373
G1 X164.647 Y87.562 E6.41141
G1 X159.428 Y87.562 E6.88596
G1 X159.062 Y87.928 E6.93303
G1 X159.062 Y90.647 E7.18025
G1 X158.147 Y91.562 E7.29793
G1 X153.853 Y91.562 E7.68840
G1 X152.991 Y90.700 E7.79926
G1 X153.563 Y90.388 F7800.000
G1 X153.563 Y71.612 E9.50660 F600.000
G1 X154.112 Y71.063 E9.57721
G1 X157.888 Y71.063 E9.92061
G1 X158.437 Y71.612 E9.99121 F600.000
G1 X158.437 Y74.697 E10.27172
G1 X158.803 Y75.063 E10.31879
G1 X164.388 Y75.063 E10.82662
G1 X164.937 Y75.612 E10.89723
G1 X164.937 Y86.388 E11.87713
G1 X164.388 Y86.937 E11.94774
G1 X158.803 Y86.937 E12.45557
G1 X158.437 Y87.303 E12.50264
G1 X158.437 Y90.388 E12.78315
G1 X157.888 Y90.937 E12.85376
G1 X154.112 Y90.937 E13.19715
G1 X153.616 Y90.441 E13.26094
G1 X154.371 Y90.312 F7800.000
G1 X154.188 Y90.129 E13.28448 F600.000
G1 X154.188 Y71.871 E14.94475
G1 X154.371 Y71.688 E14.96828
G1 X157.629 Y71.688 E15.26461
G1 X157.812 Y71.871 E15.28814
G1 X157.812 Y75.322 E15.60193
G1 X158.178 Y75.688 E15.64901
G1 X164.129 Y75.688 E16.19012
G1 X164.312 Y75.871 E16.21366
G1 X164.312 Y86.129 E17.14649
G1 X164.129 Y86.312 E17.17003
G1 X158.178 Y86.312 E17.71114
G1 X157.812 Y86.678 E17.75821
G1 X157.812 Y90.129 E18.07200
G1 X157.629 Y90.312 E18.09554
G1 X154.446 Y90.312 E18.38504
G1 F6240
G1 X154.188 Y90.129 E18.26946
G1 F6240
G1 X154.188 Y85.246 E16.48504
G1 E16.38504 F2400.00000
G92 E0
G1 X150.062 Y90.312 F7800.000
G1 E2.00000 F2400.00000
G1 X150.062 Y90.647 E2.03043 F600.000
G1 X149.147 Y91.562 E2.14811
G1 X144.853 Y91.562 E2.53858
G1 X143.938 Y90.647 E2.65626
G1 X143.938 Y87.928 E2.90348
G1 X143.572 Y87.562 E2.95055
G1 X138.353 Y87.562 E3.42510
G1 X137.438 Y86.647 E3.54278
G1 X137.438 Y75.353 E4.56975
G1 X138.353 Y74.438 E4.68743
G1 X143.572 Y74.438 E5.16198
G1 X143.938 Y74.072 E5.20905
G1 X143.938 Y71.353 E5.45627
G1 X144.853 Y70.438 E5.57395
G1 X149.147 Y70.438 E5.96442
G1 X150.062 Y71.353 E6.08210
G1 X150.062 Y90.237 E7.79926 F600.000
G1 X149.437 Y90.312 F7800.000
G1 X149.437 Y90.388 E7.80615 F600.000
G1 X148.888 Y90.937 E7.87676
G1 X145.112 Y90.937 E8.22016
G1 X144.563 Y90.388 E8.29077
G1 X144.563 Y87.303 E8.57127
G1 X144.197 Y86.937 E8.61835
G1 X138.612 Y86.937 E9.12618
G1 X138.063 Y86.388 E9.19678
G1 X138.063 Y75.612 E10.17669
G1 X138.612 Y75.063 E10.24730
G1 X144.197 Y75.063 E10.75513
G1 X144.563 Y74.697 E10.80220
G1 X144.563 Y71.612 E11.08270
G1 X145.112 Y71.063 E11.15331
G1 X148.888 Y71.063 E11.49671
G1 X149.437 Y71.612 E11.56732 F600.000
G1 X149.437 Y90.237 E13.26094
G1 X148.812 Y90.129 F7800.000
G1 X148.629 Y90.312 E13.28448 F600.000
G1 X145.371 Y90.312 E13.58080
G1 X145.188 Y90.129 E13.60434
G1 X145.188 Y86.678 E13.91813
G1 X144.822 Y86.312 E13.96520
G1 X138.871 Y86.312 E14.50632
G1 X138.688 Y86.129 E14.52985
G1 X138.688 Y75.871 E15.46269
G1 X138.871 Y75.688 E15.48622
G1 X144.822 Y75.688 E16.02734
G1 X145.188 Y75.322 E16.07441
G1 X145.188 Y71.871 E16.38820
G1 X145.371 Y71.688 E16.41173
G1 X148.629 Y71.688 E16.70806
G1 X148.812 Y71.871 E16.73160
G1 X148.812 Y90.054 E18.38504
G1 F6240
G1 X148.629 Y90.312 E18.26946
G1 F6240
G1 X145.371 Y90.312 E17.07873
G1 F6240
G1 X145.188 Y90.129 E16.98415
G1 F6240
G1 X145.188 Y88.763 E16.48504
G1 E16.38504 F2400.00000
G92 E0
G1 X134.562 Y86.647 F7800.000
G1 E2.00000 F2400.00000
G1 X133.647 Y87.562 E2.11768 F600.000
G1 X128.428 Y87.562 E2.59222
G1 X128.062 Y87.928 E2.63930
G1 X128.062 Y90.647 E2.88652
G1 X127.147 Y91.562 E3.00420
G1 X122.853 Y91.562 E3.39467
G1 X121.938 Y90.647 E3.51235
G1 X121.938 Y71.353 E5.26676
G1 X122.853 Y70.438 E5.38444
G1 X127.147 Y70.438 E5.77491
G1 X128.062 Y71.353 E5.89259
G1 X128.062 Y74.072 E6.13981 F600.000
G1 X128.428 Y74.438 E6.18688
G1 X133.647 Y74.438 E6.66143
G1 X134.562 Y75.353 E6.77911
G1 X134.562 Y86.572 E7.79926
G1 X133.937 Y86.388 F7800.000
G1 X133.388 Y86.937 E7.86987 F600.000
G1 X127.803 Y86.937 E8.37770
G1 X127.437 Y87.303 E8.42477
G1 X127.437 Y90.388 E8.70528
G1 X126.888 Y90.937 E8.77589
G1 X123.112 Y90.937 E9.11928
G1 X122.563 Y90.388 E9.18989
G1 X122.563 Y71.612 E10.89723
G1 X123.112 Y71.063 E10.96784
G1 X126.888 Y71.063 E11.31123
G1 X127.437 Y71.612 E11.38184 F600.000
G1 X127.437 Y74.697 E11.66235
G1 X127.803 Y75.063 E11.70942
G1 X133.388 Y75.063 E12.21725
G1 X133.937 Y75.612 E12.28786
G1 X133.937 Y86.313 E13.26094
G1 X133.312 Y86.129 F7800.000
G1 X133.129 Y86.312 E13.28448 F600.000
G1 X127.178 Y86.312 E13.82559
G1 X126.812 Y86.678 E13.87267
G1 X126.812 Y90.129 E14.18646
G1 X126.629 Y90.312 E14.20999
G1 X123.371 Y90.312 E14.50632
G1 X123.188 Y90.129 E14.52985
G1 X123.188 Y71.871 E16.19012
G1 X123.371 Y71.688 E16.21366
G1 X126.629 Y71.688 E16.50998
G1 X126.812 Y71.871 E16.53352
G1 X126.812 Y75.322 E16.84731
G1 X127.178 Y75.688 E16.89438
G1 X133.129 Y75.688 E17.43550
G1 X133.312 Y75.871 E17.45903
G1 X133.312 Y86.054 E18.38504
G1 F6240
G1 X133.129 Y86.312 E18.26946
G1 F6240
G1 X128.246 Y86.312 E16.48504
G1 E16.38504 F2400.00000
G92 E0
G1 X119.062 Y86.129 F7800.000
G1 E2.00000 F2400.00000
G1 X119.062 Y90.647 E2.41079 F600.000
G1 X118.147 Y91.562 E2.52847
G1 X113.853 Y91.562 E2.91894
G1 X112.938 Y90.647 E3.03662
G1 X112.938 Y87.928 E3.28384
G1 X112.572 Y87.562 E3.33091
G1 X107.353 Y87.562 E3.80546
G1 X106.438 Y86.647 E3.92314
G1 X106.438 Y75.353 E4.95011
G1 X107.353 Y74.438 E5.06779
G1 X112.572 Y74.438 E5.54234
G1 X112.938 Y74.072 E5.58941
G1 X112.938 Y71.353 E5.83663
G1 X113.853 Y70.438 E5.95431
G1 X118.147 Y70.438 E6.34478
G1 X119.062 Y71.353 E6.46246
G1 X119.062 Y86.054 E7.79926 F600.000
G1 X118.437 Y86.129 F7800.000
G1 X118.437 Y90.388 E8.18652 F600.000
G1 X117.888 Y90.937 E8.25712
G1 X114.112 Y90.937 E8.60052
G1 X113.563 Y90.388 E8.67113
G1 X113.563 Y87.303 E8.95163
G1 X113.197 Y86.937 E8.99871
G1 X107.612 Y86.937 E9.50654
G1 X107.063 Y86.388 E9.57714
G1 X107.063 Y75.612 E10.55705
G1 X107.612 Y75.063 E10.62766
G1 X113.197 Y75.063 E11.13549
G1 X113.563 Y74.697 E11.18256
G1 X113.563 Y71.612 E11.46306
G1 X114.112 Y71.063 E11.53367
G1 X117.888 Y71.063 E11.87707
G1 X118.437 Y71.612 E11.94768 F600.000
G1 X118.437 Y86.054 E13.26094
G1 F6240
G1 X118.437 Y90.388 E11.67743
G1 F6240
G1 X117.888 Y90.937 E11.39370
G1 F6240
G1 X117.799 Y90.937 E11.36094
G1 E11.26094 F2400.00000
G92 E0
G1 X117.812 Y90.129 F7800.000
G1 E2.00000 F2400.00000
G1 X117.629 Y90.312 E2.02354 F600.000
G1 X114.371 Y90.312 E2.31986
G1 X114.188 Y90.129 E2.34340
G1 X114.188 Y86.678 E2.65719
G1 X113.822 Y86.312 E2.70426
G1 X107.871 Y86.312 E3.24537
G1 X107.688 Y86.129 E3.26891
G1 X107.688 Y75.871 E4.20174
G1 X107.871 Y75.688 E4.22528
G1 X113.822 Y75.688 E4.76639
G1 X114.188 Y75.322 E4.81347
G1 X114.188 Y71.871 E5.12726
G1 X114.371 Y71.688 E5.15079
G1 X117.629 Y71.688 E5.44712
G1 X117.812 Y71.871 E5.47065
G1 X117.812 Y90.054 E7.12410
G1 F6240
G1 X117.629 Y90.312 E7.00851
G1 F6240
G1 X114.371 Y90.312 E5.81778
G1 F6240
G1 X114.188 Y90.129 E5.72321
G1 F6240
G1 X114.188 Y88.763 E5.22410
G1 E5.12410 F2400.00000
G92 E0
G1 X103.562 Y86.647 F7800.000
G1 E2.00000 F2400.00000
G1 X102.647 Y87.562 E2.11768 F600.000
G1 X97.428 Y87.562 E2.59222
G1 X97.062 Y87.928 E2.63930
G1 X97.062 Y90.647 E2.88652
G1 X96.147 Y91.562 E3.00420
G1 X91.853 Y91.562 E3.39467
G1 X90.938 Y90.647 E3.51235
G1 X90.938 Y71.353 E5.26676
G1 X91.853 Y70.438 E5.38444
G1 X96.147 Y70.438 E5.77491
G1 X97.062 Y71.353 E5.89259
G1 X97.062 Y74.072 E6.13981 F600.000
G1 X97.428 Y74.438 E6.18688
G1 X102.647 Y74.438 E6.66143
G1 X103.562 Y75.353 E6.77911
G1 X103.562 Y86.572 E7.79926
G1 X102.937 Y86.388 F7800.000
G1 X102.388 Y86.937 E7.86987 F600.000
G1 X96.803 Y86.937 E8.37770
G1 X96.437 Y87.303 E8.42477
G1 X96.437 Y90.388 E8.70528
G1 X95.888 Y90.937 E8.77589
G1 X92.112 Y90.937 E9.11928
G1 X91.563 Y90.388 E9.18989
G1 X91.563 Y71.612 E10.89723
G1 X92.112 Y71.063 E10.96784
G1 X95.888 Y71.063 E11.31123
G1 X96.437 Y71.612 E11.38184 F600.000
G1 X96.437 Y74.697 E11.66235
G1 X96.803 Y75.063 E11.70942
G1 X102.388 Y75.063 E12.21725
G1 X102.937 Y75.612 E12.28786
G1 X102.937 Y86.313 E13.26094
G1 X102.312 Y86.129 F7800.000
G1 X102.129 Y86.312 E13.28448 F600.000
G1 X96.178 Y86.312 E13.82559
G1 X95.812 Y86.678 E13.87267
G1 X95.812 Y90.129 E14.18646
G1 X95.629 Y90.312 E14.20999
G1 X92.371 Y90.312 E14.50632
G1 X92.188 Y90.129 E14.52985
G1 X92.188 Y71.871 E16.19012
G1 X92.371 Y71.688 E16.21366
G1 X95.629 Y71.688 E16.50998
G1 X95.812 Y71.871 E16.53352
G1 X95.812 Y75.322 E16.84731
G1 X96.178 Y75.688 E16.89438
G1 X102.129 Y75.688 E17.43550
G1 X102.312 Y75.871 E17.45903
G1 X102.312 Y86.054 E18.38504
G1 F6240
G1 X102.129 Y86.312 E18.26946
G1 F6240
G1 X97.246 Y86.312 E16.48504
G1 E16.38504 F2400.00000
G92 E0
G1 X88.062 Y86.129 F7800.000
G1 E2.00000 F2400.00000
G1 X88.062 Y90.647 E2.41079 F600.000
G1 X87.147 Y91.562 E2.52847
G1 X82.853 Y91.562 E2.91894
G1 X81.938 Y90.647 E3.03662
G1 X81.938 Y87.928 E3.28384
G1 X81.572 Y87.562 E3.33091
G1 X76.353 Y87.562 E3.80546
G1 X75.438 Y86.647 E3.92314
G1 X75.438 Y75.353 E4.95011
G1 X76.353 Y74.438 E5.06779
G1 X81.572 Y74.438 E5.54234
G1 X81.938 Y74.072 E5.58941
G1 X81.938 Y71.353 E5.83663
G1 X82.853 Y70.438 E5.95431
G1 X87.147 Y70.438 E6.34478
G1 X88.062 Y71.353 E6.46246
G1 X88.062 Y86.054 E7.79926 F600.000
G1 X87.437 Y86.129 F7800.000
G1 X87.437 Y90.388 E8.18652 F600.000
G1 X86.888 Y90.937 E8.25712
G1 X83.112 Y90.937 E8.60052
G1 X82.563 Y90.388 E8.67113
G1 X82.563 Y87.303 E8.95163
G1 X82.197 Y86.937 E8.99871
G1 X76.612 Y86.937 E9.50654
G1 X76.063 Y86.388 E9.57714
G1 X76.063 Y75.612 E10.55705
G1 X76.612 Y75.063 E10.62766
G1 X82.197 Y75.063 E11.13549
G1 X82.563 Y74.697 E11.18256
G1 X82.563 Y71.612 E11.46306
G1 X83.112 Y71.063 E11.53367
G1 X86.888 Y71.063 E11.87707
G1 X87.437 Y71.612 E11.94768 F600.000
G1 X87.437 Y86.054 E13.26094
G1 F6240
G1 X87.437 Y90.388 E11.67743
G1 F6240
G1 X86.888 Y90.937 E11.39370
G1 F6240
G1 X86.799 Y90.937 E11.36094
G1 E11.26094 F2400.00000
G92 E0
G1 X86.812 Y90.129 F7800.000
G1 E2.00000 F2400.00000
G1 X86.629 Y90.312 E2.02354 F600.000
G1 X83.371 Y90.312 E2.31986
G1 X83.188 Y90.129 E2.34340
G1 X83.188 Y86.678 E2.65719
G1 X82.822 Y86.312 E2.70426
G1 X76.871 Y86.312 E3.24537
G1 X76.688 Y86.129 E3.26891
G1 X76.688 Y75.871 E4.20174
G1 X76.871 Y75.688 E4.22528
G1 X82.822 Y75.688 E4.76639
G1 X83.188 Y75.322 E4.81347
G1 X83.188 Y71.871 E5.12726
G1 X83.371 Y71.688 E5.15079
G1 X86.629 Y71.688 E5.44712
G1 X86.812 Y71.871 E5.47065
G1 X86.812 Y90.054 E7.12410
G1 F6240
G1 X86.629 Y90.312 E7.00851
G1 F6240
G1 X83.371 Y90.312 E5.81778
G1 F6240
G1 X83.188 Y90.129 E5.72321
G1 F6240
G1 X83.188 Y88.763 E5.22410
G1 E5.12410 F2400.00000
G92 E0
G1 X72.562 Y86.647 F7800.000
G1 E2.00000 F2400.00000
G1 X71.647 Y87.562 E2.11768 F600.000
G1 X66.428 Y87.562 E2.59222
G1 X66.062 Y87.928 E2.63930
G1 X66.062 Y90.647 E2.88652
G1 X65.147 Y91.562 E3.00420
G1 X60.853 Y91.562 E3.39467
G1 X59.938 Y90.647 E3.51235
G1 X59.938 Y71.353 E5.26676
G1 X60.853 Y70.438 E5.38444
G1 X65.147 Y70.438 E5.77491
G1 X66.062 Y71.353 E5.89259
G1 X66.062 Y74.072 E6.13981 F600.000
G1 X66.428 Y74.438 E6.18688
G1 X71.647 Y74.438 E6.66143
G1 X72.562 Y75.353 E6.77911
G1 X72.562 Y86.572 E7.79926
G1 X71.937 Y86.388 F7800.000
G1 X71.388 Y86.937 E7.86987 F600.000
G1 X65.803 Y86.937 E8.37770
G1 X65.437 Y87.303 E8.42477
G1 X65.437 Y90.388 E8.70528
G1 X64.888 Y90.937 E8.77589
G1 X61.112 Y90.937 E9.11928
G1 X60.563 Y90.388 E9.18989
G1 X60.563 Y71.612 E10.89723
G1 X61.112 Y71.063 E10.96784
G1 X64.888 Y71.063 E11.31123
G1 X65.437 Y71.612 E11.38184 F600.000
G1 X65.437 Y74.697 E11.66235
G1 X65.803 Y75.063 E11.70942
G1 X71.388 Y75.063 E12.21725
